packages/ffe-icons/icons/filled/sm/frame_person.svg

<svg xmlns="http://www.w3.org/2000/svg" height="20" viewBox="0 -960 960 960" width="20"><path d="M480-482.308q-46.384 0-78.192-31.807-31.807-31.808-31.807-78.192 0-45.384 31.807-77.692 31.808-32.307 78.192-32.307 45.384 0 77.692 32.307 32.307 32.308 32.307 77.692 0 46.384-32.307 78.192-32.308 31.807-77.692 31.807ZM250.001-289.637v-26.056q0-26.692 18.846-46.884t43.923-32.038q38.461-19.231 81.307-27.154 42.846-7.923 85.923-7.923 43.077 0 85.923 7.423 42.846 7.423 81.307 26.654 25.077 11.846 43.923 32.038 18.846 20.192 18.846 47.884v26.056q0 13.672-9.196 22.808-9.196 9.135-22.957 9.135H282.154q-13.761 0-22.957-9.135-9.196-9.136-9.196-22.808Zm-69.692 173.636q-27.008 0-45.658-18.65-18.65-18.65-18.65-45.658v-129.692q0-11.069 7.405-18.534Q130.811-336 141.79-336q10.98 0 18.595 7.465Q168-321.07 168-310.001v129.692q0 4.616 3.846 8.463 3.847 3.846 8.463 3.846h129.692q11.069 0 18.534 7.405Q336-153.191 336-142.211q0 10.979-7.465 18.594-7.465 7.616-18.534 7.616H180.309Zm-64.308-533.998v-129.692q0-27.008 18.65-45.658 18.65-18.65 45.658-18.65h129.692q11.069 0 18.534 7.405Q336-829.189 336-818.21q0 10.98-7.465 18.595Q321.07-792 310.001-792H180.309q-4.616 0-8.463 3.846-3.846 3.847-3.846 8.463v129.692q0 11.069-7.405 18.534Q153.191-624 142.211-624q-10.979 0-18.594-7.465-7.616-7.465-7.616-18.534Zm663.69 533.998H649.999q-11.069 0-18.534-7.405Q624-130.811 624-141.79q0-10.98 7.465-18.595Q638.93-168 649.999-168h129.692q4.616 0 8.463-3.846 3.846-3.847 3.846-8.463v-129.692q0-11.069 7.405-18.534Q806.809-336 817.789-336q10.979 0 18.594 7.465 7.616 7.465 7.616 18.534v129.692q0 27.008-18.65 45.658-18.65 18.65-45.658 18.65ZM792-649.999v-129.692q0-4.616-3.846-8.463-3.847-3.846-8.463-3.846H649.999q-11.069 0-18.534-7.405Q624-806.809 624-817.789q0-10.979 7.465-18.594 7.465-7.616 18.534-7.616h129.692q27.008 0 45.658 18.65 18.65 18.65 18.65 45.658v129.692q0 11.069-7.405 18.534Q829.189-624 818.21-624q-10.98 0-18.595-7.465Q792-638.93 792-649.999Z"/></svg>

<svg xmlns="http://www.w3.org/2000/svg" height="20" viewBox="0 -960 960 960" width="20"><path d="M480-482.31q-46.38 0-78.19-31.81Q370-545.92 370-592.31q0-45.38 31.81-77.69 31.81-32.31 78.19-32.31 45.38 0 77.69 32.31Q590-637.69 590-592.31q0 46.39-32.31 78.19-32.31 31.81-77.69 31.81ZM250-289.64v-26.05q0-26.7 18.85-46.89 18.84-20.19 43.92-32.04 38.46-19.23 81.31-27.15 42.84-7.92 85.92-7.92t85.92 7.42q42.85 7.42 81.31 26.65 25.08 11.85 43.92 32.04Q710-343.39 710-315.69v26.05q0 13.68-9.2 22.81-9.19 9.14-22.95 9.14h-395.7q-13.76 0-22.95-9.14-9.2-9.13-9.2-22.81ZM180.31-116q-27.01 0-45.66-18.65Q116-153.3 116-180.31V-310q0-11.07 7.41-18.53 7.4-7.47 18.38-7.47 10.98 0 18.59 7.47Q168-321.07 168-310v129.69q0 4.62 3.85 8.46 3.84 3.85 8.46 3.85H310q11.07 0 18.53 7.4 7.47 7.41 7.47 18.39t-7.47 18.59Q321.07-116 310-116H180.31ZM116-650v-129.69q0-27.01 18.65-45.66Q153.3-844 180.31-844H310q11.07 0 18.53 7.41 7.47 7.4 7.47 18.38 0 10.98-7.47 18.59Q321.07-792 310-792H180.31q-4.62 0-8.46 3.85-3.85 3.84-3.85 8.46V-650q0 11.07-7.4 18.53-7.41 7.47-18.39 7.47t-18.59-7.47Q116-638.93 116-650Zm663.69 534H650q-11.07 0-18.53-7.41-7.47-7.4-7.47-18.38 0-10.98 7.47-18.59Q638.93-168 650-168h129.69q4.62 0 8.46-3.85 3.85-3.84 3.85-8.46V-310q0-11.07 7.4-18.53 7.41-7.47 18.39-7.47t18.59 7.47Q844-321.07 844-310v129.69q0 27.01-18.65 45.66Q806.7-116 779.69-116ZM792-650v-129.69q0-4.62-3.85-8.46-3.84-3.85-8.46-3.85H650q-11.07 0-18.53-7.4-7.47-7.41-7.47-18.39t7.47-18.59Q638.93-844 650-844h129.69q27.01 0 45.66 18.65Q844-806.7 844-779.69V-650q0 11.07-7.41 18.53-7.4 7.47-18.38 7.47-10.98 0-18.59-7.47Q792-638.93 792-650Z"/></svg>
